X:1
T:Title
%%score 1 { 2 | 3 }
L:1/8
Q:1/4=92
M:4/4
K:G
V:1 treble nm="Grand Piano, Soprano"
V:2 bass nm="Choir Pad, Geibel (Robjohn), 11.4.11.4"
V:3 bass 
V:1
 D[DG][DA][DB] [Dc][Dd][DB][EG] | [EA] [DB]2 [DA]- [DA]2- [DA]/ z/ [DA]- | %2
w: By~William~James~Robjohn,~1894 * * * * * * *||
 [DA] [Ec]3 [Ec] .[^DB]3 | [^DB][Ee][Ed][Ec] [EB][EA][EG][CF] | %4
w: ||
 [CE] [CE]2 [CD]- [CD]2- [CD]/ z/ [CG]- | [CG] [CA]3 [CA] [B,G]3- | [B,G]4 z4 |] %7
w: |||
V:2
 DB,B,B, B,G,G,G, | G, G,2 F,- F,2- F,/ z/ F,- | F, A,3 A, .F,3 | F,B,B,A, ^G,A,A,A, | %4
 A, A,2 A,- A,2- A,/ z/ G,- | G, F,3 F, G,3- | G,4 z4 |] %7
V:3
 D,G,G,G, G,B,,B,,B,, | B,, D,2 D,- D,2- D,/ z/ D,- | D, A,,3 A,, .B,,3 | B,,^G,,G,,A,, B,,C,C,D, | %4
 E, F,2 F,- F,2- F,/ z/ E,- | E, D,3 D, G,,3- | G,,4 z4 |] %7

